!!!!SEGMENT: pl-kk--kk-i-6--014_anonim--ave-hierarchia.krn
!!!cenid: 16xx:969
!!!COM: Anonim
!!!COM-rismid: pe30004985
!!!CDT:
!!!CNT:
!!!OTL: Ave Hierarchia
!!!PDT:
!!!AGN: Sacred
!!!SMS-siglum: PL-Kk
!!!SMS-shelfmark: Kk.I.6
!!!SMS-shelfwork: 014 W
!!!SMS-variant:
!!!SMS-altvar:
!!!NIFC-rismid: 1001135696
!!!URL-scan: http://repozytorium.nifc.pl/skany/pl-kk-nut--i-6
!!!ONB-nifc: UWAGA: C (skan 0011, s. 19), T (skan 0113, s. 30), B (skan 0224, s. 28-29) Następny utwór: Agnus Dei
!!!key:
**kern	**text	**kern	**text	**kern	**text
*part3	*part3	*part2	*part2	*part1	*part1
*staff3	*staff3	*staff2	*staff2	*staff1	*staff1
*Iempty	*	*Itenor	*	*Ivox	*
*I"Baſsus.	*	*I"Tenor.	*	*I"Cantus.	*
*I'B	*	*I'T	*	*I'S	*
*clefF4	*	*clefC4	*	*clefC4	*
*k[b-]	*	*k[b-]	*	*k[b-]	*
*F:	*	*F:	*	*F:	*
*M2/1	*	*M2/1	*	*M2/1	*
*met(C|)	*	*met(C|)	*	*met(C|)	*
=1-	=1-	=1-	=1-	=1-	=1-
!	!	!	!	!LO:TX:t=P:problem=przed kluczem inicjał A	!
!LO:TX:t=P:problem=przed kluczem inicjał A	!	!LO:TX:t=P:problem=przed kluczem inicjał A	!	!	!
1F	A-	1c	A-	1F	A-
!LO:TX:t=P:problem=all/middle or right&colon; global	!	!LO:TX:t=P:problem=all\middle&colon; global	!	!	!
!	!	!	!	!LO:TX:a:t=P:global:problem=w źródle kreski oddechowe / rozdzielacze słów umieszczane najczęściej na pięciolinii	!
2D/	-ue	2d\	-ue	1F,	-ue
!LO:TX:t=P:problem=all\middle&colon; global	!	!	!	!	!
2.F\	Hie-	4c\	Hie-	.	.
.	.	4B-\	.	.	.
=2-	=2-	=2-	=2-	=2-	=2-
!	!	!LO:TX:t=P:problem=all/middle or right&colon; global	!	!	!
.	.	4A/	.	1A	Hie-
4E\	.	4G/	.	.	.
4D/	.	1F	.	.	.
4C/	.	.	.	.	.
2BB-/	.	.	.	1B-	-rar-
2GG/	-rar-	1G/	.	.	.
=3-	=3-	=3-	=3-	=3-	=3-
0C	-chi-	.	.	0c	-chi-
.	.	2A/	.	.	.
.	.	1G	-rar-	.	.
=4-	=4-	=4-	=4-	=4-	=4-
2FF/	-a	2F/	-chi-	0c,	-a
!	!	!LO:TX:a:t=P:global:problem=w źródle kreski oddechowe / rozdzielacze słów umieszczane najczęściej na pięciolinii	!	!	!
1F	Cae-	1A,	-a	.	.
2E\	.	1.G/	Cae-	.	.
=5-	=5-	=5-	=5-	=5-	=5-
1D	-le-	.	.	1d	Cae-
4C/	.	2F/	-le-	1e	-le-
4BB-/	.	.	.	.	.
*	*	*custos:c	*	*	*
4AA/	.	2G/	-ſtis	.	.
*custos:FF	*	*	*	*	*
4GG/	.	.	.	.	.
!LO:LB:g=original	!	!LO:LB:g=original	!	!	!
=6-	=6-	=6-	=6-	=6-	=6-
2FF/	-ſtis	2.c\	et	1f	-ſtis
1F	et	.	.	.	.
.	.	4B-\	.	.	.
.	.	4A/	.	1c	et
.	.	4G/	.	.	.
2E\	.	2F/	.	.	.
=7-	=7-	=7-	=7-	=7-	=7-
*	*	*	*	*lig	*
2.F\	pi-	2G/	.	1A	pi-
.	.	1A	.	.	.
4E\	.	.	.	.	.
1D	.	.	.	1B-	.
.	.	2F/	pi-	.	.
*	*	*	*	*Xlig	*
=8-	=8-	=8-	=8-	=8-	=8-
*	*	*	*	*custos:B	*
0C	.	0G	-a	0c	-a
!	!	!	!	!LO:LB:g=original	!
=9-	=9-	=9-	=9-	=9-	=9-
2.GG/	.	4G/	De-	1B-	De-
.	.	4A/	.	.	.
.	.	4B-\	-i	.	.
4AA/	.	4c\	.	.	.
2BB-/	.	2d\	.	1G	-i
2C/	-a	1c\	Mo-	.	.
=10-	=10-	=10-	=10-	=10-	=10-
2AA/	Mo-	.	.	1A	Mo-
4D/	-nar-	2A/	-nar-	.	.
4C/	.	.	.	.	.
4BB-/	.	1d	-chi-	1B-	-nar-
4AA/	.	.	.	.	.
2GG/	.	.	.	.	.
=11-	=11-	=11-	=11-	=11-	=11-
*	*	*	*	*lig	*
*	*	*custos:A	*	*	*
2AA/	-chi-	0c	-a	1A	-chi-
2FF/	-a	.	.	.	.
1C	.	.	.	1G	.
*	*	*	*	*Xlig	*
!	!	!LO:LB:g=original	!	!	!
=12-	=12-	=12-	=12-	=12-	=12-
2D/	.	2A/	.	0F,	-a
!LO:LB:g=original	!	!	!	!	!
2BB-/	.	2d\	reſ-	.	.
2AA/	res-	2c\	-pi-	.	.
2BB-/	-pi-	2B-\	-ce	.	.
=13-	=13-	=13-	=13-	=13-	=13-
1C	-ce	2G/	nos	1E	reſ-
.	.	2A/	.	.	.
2BB-/	nos	2B-\	.	1F	-pi-
2AA/	.	1c\	Di-	.	.
=14-	=14-	=14-	=14-	=14-	=14-
1GG	Di-	.	.	1G	-ce
.	.	2B-\	.	.	.
2FF/	-a	1c	-a	1A	nos
*	*ij	*	*	*	*
1F\	nos	.	.	.	.
=15-	=15-	=15-	=15-	=15-	=15-
*	*	*	*	*lig	*
.	.	2rF	.	1G	Di-
*	*	*	*ij	*	*
2E\	.	2C/	reſ-	.	.
2D/	Di-	2F/	-pi-	1F	.
2BB-/	.	2D/	-ce	.	.
*	*	*	*	*Xlig	*
=16-	=16-	=16-	=16-	=16-	=16-
*	*	*	*	*lig	*
1C	.	1G	nos	1E	.
1GG	-a	1G	Di-	1D	.
*	*Xij	*	*	*	*
*	*	*	*	*Xlig	*
=17-	=17-	=17-	=17-	=17-	=17-
2rBB	.	1E	-a	0C	-a
*	*	*	*Xij	*	*
2G\	Vt	.	.	.	.
2E\	e-	2G/	Vt	.	.
*	*	*custos:F	*	*	*
2.G\	-ru-	2E/	e-	.	.
!	!	!LO:LB:g=original	!	!LO:LB:g=original	!
=18-	=18-	=18-	=18-	=18-	=18-
.	.	2F/	-ru-	1F	Vt
4F\	.	.	.	.	.
1F	.	2D/	-a-	.	.
.	.	1C	-mur	1G	e-
2E\	.	.	.	.	.
!LO:LB:g=original	!	!	!	!	!
=19-	=19-	=19-	=19-	=19-	=19-
*	*	*	*ij	*	*
2.F\	-a-	2.c\	Vt	1A	-ru-
4G\	.	4B-\	.	.	.
2.A\	-mur	4A/	.	1F	-a-
.	.	4G/	.	.	.
.	.	1F/	e-	.	.
4G\	.	.	.	.	.
=20-	=20-	=20-	=20-	=20-	=20-
*	*	*	*	*lig	*
*	*ij	*	*	*	*
2F\	e-	.	.	1c	-mur
2E\	-ru-	2G/	-ru-	.	.
1D	-a-	0A	-a-	1d	.
*	*	*	*	*Xlig	*
=21-	=21-	=21-	=21-	=21-	=21-
!LO:TX:a:t=P:global:problem=w źródle kreski oddechowe / rozdzielacze słów umieszczane najczęściej na pięciolinii	!	!	!	!	!
1AA,	-mur	.	.	0c,	.
*	*Xij	*	*	*	*
1C	er-	1G	-mur	.	.
*	*	*	*Xij	*	*
=22-	=22-	=22-	=22-	=22-	=22-
1D	-ran-	1r	.	1F	er-
1E	-tes	2r	.	1G	-ran-
.	.	1c\	er-	.	.
=23-	=23-	=23-	=23-	=23-	=23-
1F	in	.	.	1A	-tes
.	.	1d	-ran-	.	.
2.G\	.	.	.	1B-	in
.	.	2e\	-tes	.	.
4F\	Vi-	.	.	.	.
=24-	=24-	=24-	=24-	=24-	=24-
*	*	*	*	*lig	*
4D/	.	2f\	in	1A	.
4E\	.	.	.	.	.
2F\	.	1d	.	.	.
*custos:D	*	*	*	*	*
1E	.	.	.	1G	Vi-
*	*	*custos:d	*	*	*
.	.	2c\	Vi-	.	.
*	*	*	*	*Xlig	*
!LO:PB:g=original	!	!LO:LB:g=original	!	!	!
=25-	=25-	=25-	=25-	=25-	=25-
*	*	*	*	*lig	*
2D/	.	1d	-a	1F	.
2BB-/	.	.	.	.	.
*	*	*	*ij	*	*
1D	.	1B-	in	1G	.
*	*	*	*	*Xlig	*
=26-	=26-	=26-	=26-	=26-	=26-
2C/	.	2c\	Vi-	[000F	-a.
2BB-/	.	2d\	.	.	.
1C	.	2c\	-a	.	.
*	*	*	*Xij	*	*
.	.	4r	.	.	.
.	.	4G/	in	.	.
=27-	=27-	=27-	=27-	=27-	=27-
2FF,/	-a	2.c\	Vi-	.	.
2FF/	in	.	.	.	.
.	.	4B-\	.	.	.
2.F\	Vi-	2.A/	.	.	.
4E\	.	4G/	.	.	.
=28-	=28-	=28-	=28-	=28-	=28-
2.D/	.	2F/	.	.	.
.	.	2F/	-a	.	.
4C/	.	.	.	.	.
*	*	*	*ij	*	*
2BB-/	.	2.f\	in	.	.
2AA/	.	.	.	.	.
.	.	4e\	.	.	.
=29-	=29-	=29-	=29-	=29-	=29-
0BB-	.	2d\	Vi-	.	.
.	.	2c\	.	.	.
.	.	1B-	.	.	.
=30-	=30-	=30-	=30-	=30-	=30-
0FFl	-a.	0Al	-a	0F]l	.
*	*	*	*Xij	*	*
=-	=-	=-	=-	=-	=-
*-	*-	*-	*-	*-	*-
!!!system-decoration: [(s1,s2,s3)]
!!!RDF**kern: l = terminal long
!!!EED: Antoni Szymański
!!!EST: 2021-03-21
!!!AIN: 1 empty 1 tenor 1 vox
!!!ENC: Andrzej Borzym
!!!END: 2021-03-06
